X:1100
T:Tam Glen.
M:3/4
L:1/8
Q:1/4=120
I: || ||
Z:Jack Campin * www.campin.me.uk * 2009
K:B Minor
fe |d2B2B2|B3 dBA|B2 d2e2|f3 ed2|d3 e de/f/| A4
fe |d2B2B2|B3 dBA|B2 d2e2|f3 ed2|e3 def    | B4||
a>g|f2a2b2|a2f2e2|d3  ef2|f3 ga2|f3 ed2    | A4
fe |d2B2B2|B3 dBA|B2 b3 a|g2f2e2|d2c2B2    |Hg3f
e2 |d2B2B2|B3 dBA|B2Hb3 a|g2f2e2|d3 ef2    | B4|]
<end>
<start>
